X: 56
T: Simon MacKenzie's Welcome to his Twin Sisters
C:Phil Cunningham
M:2/4
L:1/8
K:G
A/>B/A/<G/ AA/<g/ | ee/<g/ ee/>d/ |B/>a/B/<G/ de/<g/ |ag/>e/ d/<B/e2 |
A/>B/A/<G/ AA/<g/ |ee/<g/ ee/>d/ |B/>A/B/<G/ de/<g/ |1
(3G/G/G/ B/>G/ A(3A/A/e/ :||2 (3G/G/G/ B/>G/ A/>A/A ||
|: a/>e/e/>f/ gf/<e/ |de/>f/ g/>e/d/<B/ |G/>A/B/<G/ de/<g/ |
ag/>e/ d/<B/e |1 a/>e/e/>f/ gf/<e/|de/>f/ g/>e/d/<B/ |
G/>A/B/<G/ de/<g/ | (3G/G/G/ B/>G/ A/>A/A :||2 A/>B/A/<G/ AA/<g/ |
ee/<g/ ee/>d/ |B/>A/B/<G/ de/<g/ | (3G/G/G/ B/>G/ A/>A/A ||

%%sep 2 1 500

